SVG/img-revolution-5.svg

<svg width="92" height="88" viewBox="0 0 92 88" fill="none" xmlns="http://www.w3.org/2000/svg">
<path d="M75.98 10.0538C74.53 6.30377 75.31 3.12377 78.1 1.19377C80.67 -0.586226 84.15 -0.356226 86.47 1.75377C88.78 3.84377 89.35 7.31377 87.82 10.0338C86.12 13.0738 83.09 14.0638 78.93 12.8838C73.86 18.2338 68.75 23.6238 63.62 29.0338C64.68 31.2638 64.77 33.4538 63.57 35.6038C62.62 37.3038 61.17 38.3838 59.28 38.8738C55.84 39.7738 51.41 37.6438 50.9 32.5938C50.69 32.5138 50.46 32.4138 50.21 32.3438C46.74 31.3638 43.28 30.4038 39.81 29.4138C39.32 29.2738 39.01 29.3238 38.64 29.7538C36.35 32.4538 32.95 33.0138 29.87 31.2338C29.73 31.1538 29.59 31.0738 29.38 30.9538C24.82 34.2438 20.25 37.5538 15.64 40.8738C16.17 42.9838 16 44.9738 14.78 46.7838C13.93 48.0338 12.79 48.9138 11.36 49.3938C8.45002 50.3838 5.27002 49.2938 3.57002 46.7338C1.86002 44.1538 2.12002 40.7538 4.21002 38.4438C6.46002 35.9538 9.57002 35.6238 13.27 37.5338C17.81 34.2538 22.38 30.9538 26.97 27.6438C26.76 26.5238 26.58 25.4538 26.78 24.3338C27.37 21.0738 30.18 18.7338 33.54 18.7738C36.82 18.8138 39.63 21.2338 40.06 24.4738C40.14 25.0938 40.38 25.3438 40.97 25.5038C44.51 26.4738 48.03 27.4838 51.56 28.4738C51.68 28.5038 51.81 28.5238 52.02 28.5538C52.99 27.2438 54.24 26.2438 55.87 25.8038C57.46 25.3838 59.02 25.5238 60.61 26.2238C65.72 20.8338 70.82 15.4438 75.95 10.0338L75.98 10.0538ZM36.1 25.4738C36.08 23.9938 34.91 22.8538 33.42 22.8638C31.96 22.8738 30.76 24.0938 30.78 25.5338C30.8 26.9738 32.03 28.1638 33.48 28.1538C34.95 28.1338 36.11 26.9438 36.09 25.4638L36.1 25.4738ZM60.36 32.2838C60.34 30.8238 59.14 29.6738 57.66 29.6938C56.18 29.7138 55.04 30.8838 55.06 32.3738C55.08 33.8438 56.28 35.0038 57.75 34.9838C59.2 34.9638 60.38 33.7338 60.36 32.2838ZM84.58 6.77377C84.6 5.29377 83.44 4.11377 81.97 4.09377C80.5 4.08377 79.3 5.25377 79.28 6.71377C79.26 8.15377 80.47 9.39377 81.91 9.41377C83.35 9.43377 84.56 8.23377 84.58 6.77377ZM11.86 43.0338C11.86 41.5538 10.71 40.3738 9.24002 40.3538C7.78002 40.3438 6.58002 41.5238 6.57002 42.9938C6.56002 44.4438 7.75002 45.6738 9.20002 45.6838C10.64 45.6938 11.86 44.4938 11.86 43.0338Z" fill="#07E993"/>
<path d="M91.16 61.8742C91.16 54.1142 91.13 46.3542 91.18 38.6042C91.18 36.9542 90.28 35.9842 88.55 36.0042C84.1 36.0642 79.66 36.0242 75.21 36.0242C73.46 36.0242 72.72 36.7742 72.7 38.5042C72.7 38.6342 72.7 38.7642 72.7 38.8942C72.7 54.2142 72.7 69.5342 72.7 84.8642C72.7 85.1242 72.69 85.3842 72.7 85.6442C72.78 86.8342 73.45 87.5642 74.63 87.7142C74.92 87.7542 75.21 87.7542 75.5 87.7542C79.78 87.7542 84.07 87.7542 88.35 87.7542C88.67 87.7542 89 87.7542 89.32 87.7042C90.4 87.5342 91.06 86.8342 91.13 85.7442C91.15 85.4242 91.14 85.0942 91.14 84.7742C91.14 77.1442 91.14 69.5142 91.14 61.8842L91.16 61.8742Z" fill="#07E993"/>
<path d="M42.67 52.4749C42.67 52.1849 42.67 51.8849 42.66 51.5949C42.59 50.5249 41.89 49.7849 40.84 49.6349C40.65 49.6049 40.45 49.6149 40.26 49.6149C35.75 49.6149 31.23 49.6149 26.72 49.6149C26.49 49.6149 26.26 49.6149 26.04 49.6449C25.03 49.8049 24.35 50.5349 24.28 51.5549C24.26 51.8449 24.27 52.1349 24.27 52.4349C24.27 57.8549 24.27 63.2849 24.27 68.7049C24.27 74.2549 24.29 79.8149 24.25 85.3649C24.25 86.6849 24.98 87.7449 26.58 87.7449C26.77 87.7449 26.97 87.7449 27.16 87.7449C31.38 87.7449 35.6 87.7149 39.82 87.7649C41.52 87.7849 42.71 87.2749 42.69 84.9249C42.64 74.1149 42.67 63.2949 42.67 52.4849V52.4749Z" fill="#07E993"/>
<path d="M64.36 55.1742C61.38 55.2542 58.39 55.1942 55.4 55.1942C53.81 55.1942 52.22 55.2042 50.63 55.1942C49.81 55.1942 49.13 55.4642 48.77 56.1942C48.57 56.6142 48.49 57.1242 48.49 57.5942C48.47 62.2042 48.48 66.8142 48.48 71.4242C48.48 76.0942 48.48 80.7742 48.48 85.4442C48.48 86.8542 49.19 87.6142 50.58 87.7342C50.81 87.7542 51.03 87.7442 51.26 87.7442C55.54 87.7442 59.83 87.7442 64.11 87.7442C64.43 87.7442 64.76 87.7442 65.08 87.6942C66.11 87.5342 66.71 86.9442 66.87 85.9242C66.92 85.5742 66.92 85.2142 66.92 84.8542C66.92 81.4142 66.92 77.9742 66.92 74.5342C66.92 68.9542 66.9 63.3742 66.93 57.7842C66.93 56.2342 66.24 55.1142 64.34 55.1742H64.36Z" fill="#07E993"/>
<path d="M16.11 61.635C11.53 61.625 6.95 61.635 2.37 61.635C0.73 61.635 0 62.375 0 64.025C0 71.105 0 78.185 0 85.265C0 86.935 0.75 87.725 2.43 87.735C6.94 87.755 11.46 87.755 15.97 87.735C17.71 87.735 18.44 86.955 18.44 85.205C18.44 81.695 18.44 78.185 18.44 74.685C18.44 71.115 18.44 67.535 18.44 63.965C18.44 62.385 17.69 61.635 16.11 61.625V61.635Z" fill="#07E993"/>
</svg>

<?xml version="1.0" encoding="UTF-8"?>
<svg id="Layer_2" data-name="Layer 2" xmlns="http://www.w3.org/2000/svg" xmlns:xlink="http://www.w3.org/1999/xlink" viewBox="0 0 91.19 87.76">
  <defs>
    <style>
      .cls-1 {
        fill: url(#linear-gradient);
      }

      .cls-1, .cls-2, .cls-3, .cls-4, .cls-5 {
        stroke-width: 0px;
      }

      .cls-2 {
        fill: url(#linear-gradient-4);
      }

      .cls-3 {
        fill: url(#linear-gradient-2);
      }

      .cls-4 {
        fill: url(#linear-gradient-3);
      }

      .cls-5 {
        fill: url(#linear-gradient-5);
      }
    </style>
    <linearGradient id="linear-gradient" x1="18.01" y1="79.72" x2="56.24" y2="3.68" gradientUnits="userSpaceOnUse">
      <stop offset="0" stop-color="red"/>
      <stop offset="1" stop-color="#464961"/>
    </linearGradient>
    <linearGradient id="linear-gradient-2" x1="61.88" y1="101.78" x2="100.11" y2="25.74" xlink:href="#linear-gradient"/>
    <linearGradient id="linear-gradient-3" x1="25.89" y1="83.69" x2="64.13" y2="7.65" xlink:href="#linear-gradient"/>
    <linearGradient id="linear-gradient-4" x1="46.38" y1="93.99" x2="84.61" y2="17.95" xlink:href="#linear-gradient"/>
    <linearGradient id="linear-gradient-5" x1="8.96" y1="75.17" x2="47.19" y2="-.87" xlink:href="#linear-gradient"/>
  </defs>
  <g id="Design">
    <g>
      <path class="cls-1" d="M75.99,10.05c-1.45-3.75-.67-6.93,2.12-8.86,2.57-1.78,6.05-1.55,8.37.56,2.31,2.09,2.88,5.56,1.35,8.28-1.7,3.04-4.73,4.03-8.89,2.85-5.07,5.35-10.18,10.74-15.31,16.15,1.06,2.23,1.15,4.42-.05,6.57-.95,1.7-2.4,2.78-4.29,3.27-3.44.9-7.87-1.23-8.38-6.28-.21-.08-.44-.18-.69-.25-3.47-.98-6.93-1.94-10.4-2.93-.49-.14-.8-.09-1.17.34-2.29,2.7-5.69,3.26-8.77,1.48-.14-.08-.28-.16-.49-.28-4.56,3.29-9.13,6.6-13.74,9.92.53,2.11.36,4.1-.86,5.91-.85,1.25-1.99,2.13-3.42,2.61-2.91.99-6.09-.1-7.79-2.66-1.71-2.58-1.45-5.98.64-8.29,2.25-2.49,5.36-2.82,9.06-.91,4.54-3.28,9.11-6.58,13.7-9.89-.21-1.12-.39-2.19-.19-3.31.59-3.26,3.4-5.6,6.76-5.56,3.28.04,6.09,2.46,6.52,5.7.08.62.32.87.91,1.03,3.54.97,7.06,1.98,10.59,2.97.12.03.25.05.46.08.97-1.31,2.22-2.31,3.85-2.75,1.59-.42,3.15-.28,4.74.42,5.11-5.39,10.21-10.78,15.34-16.19ZM36.11,25.47c-.02-1.48-1.19-2.62-2.68-2.61-1.46.01-2.66,1.23-2.64,2.67.02,1.44,1.25,2.63,2.7,2.62,1.47-.02,2.63-1.21,2.61-2.69ZM60.37,32.28c-.02-1.46-1.22-2.61-2.7-2.59-1.48.02-2.62,1.19-2.6,2.68.02,1.47,1.22,2.63,2.69,2.61,1.45-.02,2.63-1.25,2.61-2.7ZM84.59,6.77c.02-1.48-1.14-2.66-2.61-2.68-1.47-.01-2.67,1.16-2.69,2.62-.02,1.44,1.19,2.68,2.63,2.7,1.44.02,2.65-1.18,2.67-2.64ZM11.87,43.03c0-1.48-1.15-2.66-2.62-2.68-1.46-.01-2.66,1.17-2.67,2.64-.01,1.45,1.18,2.68,2.63,2.69,1.44.01,2.66-1.19,2.66-2.65Z"/>
      <g>
        <path class="cls-3" d="M91.17,61.87c0-7.76-.03-15.52.02-23.27,0-1.65-.9-2.62-2.63-2.6-4.45.06-8.89.02-13.34.02-1.75,0-2.49.75-2.51,2.48,0,.13,0,.26,0,.39,0,15.32,0,30.64,0,45.97,0,.26-.01.52,0,.78.08,1.19.75,1.92,1.93,2.07.29.04.58.04.87.04,4.28,0,8.57,0,12.85,0,.32,0,.65,0,.97-.05,1.08-.17,1.74-.87,1.81-1.96.02-.32.01-.65.01-.97,0-7.63,0-15.26,0-22.89Z"/>
        <path class="cls-4" d="M42.68,52.47c0-.29,0-.59-.01-.88-.07-1.07-.77-1.81-1.82-1.96-.19-.03-.39-.02-.58-.02-4.51,0-9.03,0-13.54,0-.23,0-.46,0-.68.03-1.01.16-1.69.89-1.76,1.91-.02.29-.01.58-.01.88,0,5.42,0,10.85,0,16.27,0,5.55.02,11.11-.02,16.66,0,1.32.73,2.38,2.33,2.38.19,0,.39,0,.58,0,4.22,0,8.44-.03,12.66.02,1.7.02,2.89-.49,2.87-2.84-.05-10.81-.02-21.63-.02-32.44Z"/>
        <path class="cls-2" d="M64.37,55.17c-2.98.08-5.97.02-8.96.02-1.59,0-3.18.01-4.77,0-.82,0-1.5.27-1.86,1-.2.42-.28.93-.28,1.4-.02,4.61-.01,9.22-.01,13.83,0,4.67,0,9.35,0,14.02,0,1.41.71,2.17,2.1,2.29.23.02.45.01.68.01,4.28,0,8.57,0,12.85,0,.32,0,.65,0,.97-.05,1.03-.16,1.63-.75,1.79-1.77.05-.35.05-.71.05-1.07,0-3.44,0-6.88,0-10.32,0-5.58-.02-11.16.01-16.75,0-1.55-.69-2.67-2.59-2.61Z"/>
        <path class="cls-5" d="M16.12,61.63c-4.58-.01-9.16,0-13.74,0-1.64,0-2.37.74-2.37,2.39,0,7.08,0,14.16,0,21.24,0,1.67.75,2.46,2.43,2.47,4.51.02,9.03.02,13.54,0,1.74,0,2.47-.78,2.47-2.53,0-3.51,0-7.02,0-10.52,0-3.57,0-7.15,0-10.72,0-1.58-.75-2.33-2.33-2.34Z"/>
      </g>
    </g>
  </g>
</svg>
